X:156
T:Red Heath. THO2.156
O:London
M:C
L:1/8
Q:1/2=80
B:Thompson's Compleat Coll. of 200 Favourite Country Dances, vol.2,1765
Z:Transcribed and edited by Fynn Titford-Mock, 2007
Z:abc's:AK/Fiddler's Companion/VMP 2009
K:F
cfed Tc2 BA|GABc BAGF|cfed Tc2 BA|GBAG F4:|
|:ecgc acgc|ecgc a2g2|ecgc acgc|Gc=Bd c4:|
|:f2 af d2 ge|c2 fc A2F2|f2 af d2 ge|c2 fA F4:|

